X: 37880
T: Soup Dragon, The
R: jig
M: 6/8
K: Eminor
|:A|BEE EDE|ABB BAG|~A3 A2G|ABB AGA|
BEE EDE|ABB BAG|~A3 B2A|GED E2:|
A|Bdd dBG|ABB BAG|AAA A2 G|AAA AGA|
Bdd dBG|ABB BAG|AAA B2A|GED Ez A|
Bdd dBG|ABB BAG|AAA A2 G|A.B.B {d}BAG|
BEE EDE|ABB BAG|AzA JB2A|GED E2|

